dist/svgs/crypto-icons/icons/apis.svg

<svg width="462" height="512" xmlns="http://www.w3.org/2000/svg"><g fill="none" fill-rule="evenodd"><path fill="#000" fill-rule="nonzero" d="M445.775 152.307667L230.796667 36.6076667 15.6676667 152.307667 0.452 123.985333 230.796667 0 460.990667 123.985333z"/><path fill="#000" fill-rule="nonzero" d="M230.043333 511.609333L0 388.979667 0 123.684 32.2393333 144.775 32.2393333 369.696333 229.892667 475.150667"/><path d="M206.09 138.297C206.125023 153.108872 200.83137 167.439228 191.175667 178.671333 213.170667 170.084333 233.659 155.471333 251.285333 135.434667 240.287667 122.930667 228.235667 112.686333 215.430333 104.551333L200.363667 112.234667C204.117492 120.411562 206.070353 129.299642 206.09 138.297zM36.4573333 135.434667C54.0833333 155.47 74.572 170.084333 96.567 178.67 86.911297 167.437895 81.6176441 153.107539 81.6526667 138.295667 81.6830013 129.638916 83.4765822 121.079087 86.924 113.138333L71.4083333 105.003333C58.4156709 113.493774 46.6547548 123.733835 36.4573333 135.434667L36.4573333 135.434667z" transform="translate(85.3 106.4)"/><path d="M106.058,88.884 C97.7241582,95.213065 91.1394484,103.560274 86.9246667,113.138667 L142.364,141.913 L200.364,112.235 C196.151735,103.033806 189.735422,95.0133574 181.683333,88.884 C193.579376,92.5801342 204.928316,97.8489607 215.429,104.550667 L247.819,87.979 C217.086333,63.876 181.383,51.0706667 143.871333,51.0706667 L143.871333,51.0706667 C106.208667,51.0706667 70.2046667,64.1773333 39.3196667,88.5826667 L71.4083333,105.304 C82.0669784,98.1197053 93.7482488,92.5841121 106.058,88.884 Z" fill="#000" fill-rule="nonzero" transform="translate(85.3 106.4)"/><path d="M142.364667,32.2393333 L142.364667,32.2393333 C184.547,32.2393333 224.318667,49.4136667 251.586333,79.393 L255.804667,83.9126667 L285.482667,68.697 L275.389333,57.7 C242.095333,21.091 193.586,0.150666667 142.515333,0 L142.364667,0 C91.4446667,0 42.9353333,20.9403333 9.491,57.5486667 L0,67.9433333 L29.5276667,83.31 L33.2943333,79.2433333 C60.7123333,49.4133333 100.333333,32.2393333 142.364667,32.2393333 Z" fill="#000" fill-rule="nonzero" transform="translate(85.3 106.4)"/><path d="M172.193667 219.498C168.659706 227.411966 166.861715 235.991036 166.920667 244.658 166.885644 259.469872 172.179297 273.800228 181.835 285.032333 159.84 276.445333 139.351667 261.832333 121.725333 241.795667 132.421667 229.593 144.172333 219.499333 156.676333 211.515L124.588 194.791333C111.855653 204.938572 100.33071 216.514403 90.2396667 229.291333L80.5966667 241.493 80.2966667 241.793 80.2966667 242.093 80.5966667 242.393 90.2383333 254.595667C108.468333 277.197333 129.860667 295.124667 153.061 307.327333L153.061 394.403333 185.300333 408.865667 185.300333 320.132333C199.077374 324.030267 213.316177 326.057111 227.633667 326.158333L227.633667 248.272333 172.193667 219.498zM378.133 241.643667L377.833 241.343667 368.191333 229.141C357.493667 215.731667 345.743 203.981 333.239 194.188667L300.850333 210.760333C313.655667 218.895333 325.707667 229.290333 336.705333 241.643667 319.079333 261.680333 298.590667 276.293333 276.595667 284.880333 286.25137 273.648228 291.545023 259.317872 291.51 244.506 291.490411 235.508529 289.537549 226.620328 285.783667 218.443333L227.783667 248.122 227.783667 326.008 229.290333 326.008C242.33531 325.986472 255.331754 324.418757 268.007667 321.337667 271.924667 320.283 276.142667 319.078 280.210333 317.722L280.210333 370.600333C280.210333 395.457667 300.397667 403.743333 325.255 389.281 350.112333 374.668 370.299667 342.73 370.299667 317.872667L370.299667 301.753333 338.060333 320.584667 338.060333 336.704333C338.060333 343.785 332.335667 352.824 325.255 357.042 318.174333 361.108667 312.449667 358.849667 312.449667 351.769333L312.449667 303.561 311.847 303.561C332.636667 291.509 351.618667 274.937333 368.190333 254.147667L377.832 241.945 378.133 241.645 378.133 241.645 378.133 241.643667z" fill="#000" fill-rule="nonzero"/><g fill="#000" fill-rule="nonzero"><path d="M199.310667 20.4883333L199.310667 243.15 179.726 253.695667 199.009333 243.3 172.193333 257.913 172.193333 257.913 0 351.466667 0.150666667 387.924 231.550667 262.281333 231.550667 0z" transform="translate(229.9 123.7)"/></g><path fill="#000" fill-rule="nonzero" d="M404.647667 233.659L357.494 258.516333 357.494 227.633 404.647667 202.775667z"/></g></svg>

<svg xmlns="http://www.w3.org/2000/svg" viewBox="0 0 462 512"><g fill-rule="evenodd"><path fill-rule="nonzero" d="M445.775 152.308l-214.978-115.7-215.13 115.7L.453 123.985 230.797 0 460.99 123.985z"/><path fill-rule="nonzero" d="M230.043 511.61L0 388.98V123.684l32.24 21.091v224.921l197.653 105.455"/><path d="M291.39 244.697a61.71 61.71 0 01-14.914 40.374c21.995-8.587 42.483-23.2 60.11-43.236-10.998-12.504-23.05-22.749-35.856-30.884l-15.066 7.684a62.796 62.796 0 015.726 26.062zm-169.633-2.862c17.626 20.035 38.115 34.65 60.11 43.235a61.71 61.71 0 01-14.914-40.374 63.733 63.733 0 015.271-25.158l-15.516-8.135a168.973 168.973 0 00-34.95 30.432z"/><path fill-rule="nonzero" d="M191.358 195.284a61.62 61.62 0 00-19.133 24.255l55.439 28.774 58-29.678a61.54 61.54 0 00-18.68-23.351 139.864 139.864 0 0133.745 15.667l32.39-16.572c-30.733-24.103-66.436-36.908-103.948-36.908-37.662 0-73.666 13.106-104.551 37.512l32.088 16.721a127.83 127.83 0 0134.65-16.42z"/><path fill-rule="nonzero" d="M227.665 138.64c42.182 0 81.954 17.174 109.221 47.153l4.219 4.52 29.678-15.216-10.094-10.997c-33.294-36.609-81.803-57.55-132.874-57.7h-.15c-50.92 0-99.43 20.94-132.874 57.549L85.3 174.343l29.528 15.367 3.766-4.067c27.418-29.83 67.04-47.004 109.07-47.004zm-55.471 80.858a60.693 60.693 0 00-5.273 25.16 61.71 61.71 0 0014.914 40.374c-21.995-8.587-42.483-23.2-60.11-43.236 10.697-12.203 22.447-22.297 34.951-30.281l-32.088-16.724a212.661 212.661 0 00-34.348 34.5l-9.643 12.202-.3.3v.3l.3.3 9.641 12.203c18.23 22.601 39.623 40.529 62.823 52.731v87.076l32.24 14.463v-88.734a159.644 159.644 0 0042.333 6.026v-77.886l-55.44-28.774zm205.939 22.146l-.3-.3-9.642-12.203c-10.697-13.41-22.448-25.16-34.952-34.952L300.85 210.76c12.806 8.135 24.858 18.53 35.855 30.884-17.626 20.036-38.114 34.65-60.11 43.236a61.71 61.71 0 0014.915-40.374 62.796 62.796 0 00-5.726-26.063l-58 29.679v77.886h1.506a165.078 165.078 0 0038.718-4.67c3.917-1.055 8.135-2.26 12.202-3.616V370.6c0 24.858 20.188 33.143 45.045 18.681 24.857-14.613 45.045-46.551 45.045-71.408v-16.12l-32.24 18.832v16.12c0 7.08-5.724 16.119-12.805 20.337-7.08 4.067-12.805 1.808-12.805-5.273v-48.208h-.603c20.79-12.052 39.772-28.624 56.343-49.413l9.642-12.203.301-.3v-.001z"/><path fill-rule="nonzero" d="M429.21 144.188V366.85l-19.584 10.546L428.909 367l-26.816 14.613L229.9 475.167l.15 36.457 231.4-125.643V123.7z"/><path fill-rule="nonzero" d="M404.648 233.659l-47.154 24.857v-30.883l47.154-24.857z"/></g></svg>
